X:1
T: Fairfield Fancy    % -----
C: Trad.
M: 2/4
%%sysstaffsep 35
K:Am
V:1 name="Intro" snm="In" 
ME2>.E2 .A2.A2 | .c2.c2 e4 | edef edcB | A2E2 {Ec}+E2c2a2+ EE |
T:       % note: force new indentation with empty title field
V:1 name="Melody" snm="Mel."
|: "Am"EAA^G A2 AB | c2e2 f2e2 | "G"DGGF G2 GA | B2d2 e2d2|
"Am"EAA^G A2 AB | cBAc edce | "C"gage "Am"dcAc |1 ecdB A2 EE :|2ecdB A2 ee| 
|:   "Am"ea^gb a2 ab | c'aba c'aba | "G"dgfa g2 ga | bgag bgag |
"Am"ea^gb a2 ab | c'aba c'aba | "C"gage "Am"dcAc |1 ecdB A2 ee :|2 ecdB A2 EE||
V:acc_1 name="Accomp I" snm="Acc. II"
L:1/4
|: (A,C | EA) | (GD | B,G,) | (A, C | E A) | c/G/ A/E/- |1 E/D/ C :|2 E/D/ C | 
|: A2-  | A z  | G2- | G z  |A2-   | A z  | c/G/ A/E/- |1 E/D/ C :|2 E/D/ C || 
V:acc_2 name="Accomp II"  snm="Acc. II"
L:1/4
|: A z |(A/c/ d/c/ |B) z |(G/B/ c/B/ |A) z|A c| e/e/ A|1(E A):|2 (E A)|  
|: (Ac | ea) | (gd | BG) | (Ac | ea) | (ge |1 cA) :|2 cA) ||



